!!!!SEGMENT: pl-stab--75a--003_rodowski-aleksander--missa-pastorales-credo.krn
!!!cenid: 18xx:3406
!!!COM: Rodowski, Aleksander
!!!COM-rismid: pe30009627
!!!CDT: <1790->1810
!!!CNT: Polish
!!!OPR: Missa Pastorales
!!!OTL: Credo
!!!OMV: 003
!!!PDT: 1850
!!!AGN:
!!!SMS-siglum: PL-STAb
!!!SMS-shelfmark: 75a
!!!SMS-shelfwork: M
!!!SMS-variant: Partytura: PL-STAb 75a:4
!!!SMS-altvar: Canto: PL-STAb 75a:5-6, Organo: PL-STAb 75a:8
!!!NIFC-rismid: 301050718
!!!URL-scan: https://repozytorium.nifc.pl/islandora/object/pl-stab%3A4458/datastream/PDF/view
!!!ONB-nifc: UWAGA: na podstawie partytury (s. 3-5, 10-11). W źródle znajdują się także głosy. Proszę o wypełnienie pól SMS:variant i SMS:altvar. UWAGA: części Mszy: 1. Kyrie, 2. Gloria, 3. Credo, 4. Et incarnatus, 5. Sanctus, 6. Benedictus, 7. Agnus Dei
!!!OMD: Allegro
!!!key: C
**kern	**kern	**kern	**kern	**text
*part4	*part3	*part2	*part1	*part1
*staff4	*staff3	*staff2	*staff1	*staff1
*>[A,A,B,B,A]	*>[A,A,B,B,A]	*>[A,A,B,B,A]	*>[A,A,B,B,A]	*>[A,A,B,B,A]
*>A	*>A	*>A	*>A	*>A
*I"Organo	*	*I"Basſ	*I"Canty	*
*Iorg	*	*Ibass	*Isoprn	*
*ICklav	*	*ICvox	*ICvox	*
*clefF4	*clefG2	*clefF4	*clefG2	*
*k[]	*k[]	*k[]	*k[]	*
*C:	*C:	*C:	*C:	*
*M3/4	*M3/4	*M3/4	*M3/4	*
*	*	*	*	*above
=1	=1	=1	=1	=1
*	*	*	*^	*
8C\L	4cc 4g\	8C\L	4cc 4e\	4ryy	Cre-
(8c\	.	8c\J	.	.	.
8G 8E\	8ee\L	8c\	8ee\	8a\	-do
8c\	8ee\	8G\	8ee\	8cc\	in
8G 8E\	8ee\	8E\	8ee\	8cc\	u-
8c\J)	8gg\J	8C\	8gg\	8ee\	-num
=2	=2	=2	=2	=2	=2
!LO:TX:t=P:problem:mixed beam	!	!LO:TX:t=P:problem:mixed beam	!	!	!
.	8qgg/	.	.	.	.
8GG/L	(16ff\LL	8G\L	(16ff\LL	4g\	de-
.	16ee\	.	16ee\	.	.
(8G\	16dd\	8GG/J	16dd\	.	.
.	16cc\JJ)	.	16cc\JJ)	.	.
8F 8D\	8b\L	4GG/	4b 4g\	2ryy	-um
8G\	8b\J	.	.	.	.
8F 8D\	4b\	4r	4r	.	.
8G\J)	.	.	.	.	.
*	*	*	*v	*v	*
=3	=3	=3	=3	=3
!LO:TX:t=P:problem:mixed beam	!	!	!	!
8GG/L	(8g\L	2.r	2.r	.
(8G\	8a\	.	.	.
8F 8D\	8b\	.	.	.
8G\	8cc\	.	.	.
8F 8D\	8dd\	.	.	.
8G\J)	8ee\J)	.	.	.
=4	=4	=4	=4	=4
8EL 8C\	(8cc\L	2.r	2.r	.
8G\	8ee\	.	.	.
8E 8C\	8gg\	.	.	.
8G\J	8ee\	.	.	.
8FL 8BB\	8ff\	.	.	.
8G\J	8dd\J)	.	.	.
=5	=5	=5	=5	=5
*	*	*	*^	*
8C\L	(8cc\L	8C\L	8cc\	8e\	Cre-
8c\	8ee\)	8c\J	8ee\	8a\	-do
8G 8E\	8ee\	8c\	8ee\	8cc\	in
8c\	8ee\	8G\	8ee\	8cc\	.
8G 8E\	8ee\	8E\	8ee\	8cc\	u-
8c\J	8gg\J	8C\	8gg\	8ee\	-num
!!LO:LB:g=original
=6	=6	=6	=6	=6	=6
!LO:TX:t=P:problem:mixed beam	!	!LO:TX:t=P:problem:mixed beam	!	!	!
8GG/L	(16ff\LL	8G\L	(16ff\LL	4g\	De-
.	16ee\	.	16ee\	.	.
8G\	16dd\	8GG/J	16dd\	.	.
.	16cc\JJ)	.	16cc\JJ)	.	.
(8F 8D\	8b\L	4GG/	4b 4g\	2ryy	-um
8G\	8b\J	.	.	.	.
8F 8D\	4b\	4r	4r	.	.
8G\J)	.	.	.	.	.
*	*	*	*v	*v	*
=7	=7	=7	=7	=7
*rep	*	*	*	*
!LO:TX:t=P:problem:mixed beam	!	!	!	!
8GG/L	(8g\L	2.r	2.r	.
8G\	8gg\	.	.	.
(8F 8D\	8ff\	.	.	.
8G\	8dd\	.	.	.
8F 8D\	8cc\	.	.	.
8G\J)	8b\J)	.	.	.
*Xrep	*	*	*	*
=8	=8	=8	=8	=8
(8C\L	4.cc\	2.r	2.r	.
8c\	.	.	.	.
8G 8E\	.	.	.	.
8c\	(8ee\L	.	.	.
8G 8E\	8cc\	.	.	.
8c\J)	8a\J)	.	.	.
=9	=9	=9	=9	=9
!LO:TX:t=P:problem:mixed beam	!	!	!	!
8GG/L	(8g\L	2.r	2.r	.
8G\	8gg\	.	.	.
8F 8D\	8ff\	.	.	.
8G\	8dd\	.	.	.
8F 8D\	8cc\	.	.	.
8G\J	8b\J)	.	.	.
=10	=10	=10	=10	=10
8EL 8C\	8cc\L	2.r	2.r	.
8G\J	16cc\L	.	.	.
.	16dd\JJ	.	.	.
8EL 8C\	8cc\L	.	.	.
8G\J	16cc\L	.	.	.
.	16dd\JJ	.	.	.
4E 4C;\	4cc;\	.	.	.
=11:|!|:	=11:|!|:	=11:|!|:	=11:|!|:	=11:|!|:
*>B	*>B	*>B	*>B	*>B
8BL 8G\	8b\L	8G\	8b 8g\	pa-
8d\	8dd\J	8G\	8dd 8b\	-trem
8B 8G\	4.gg 4.g\	4.G\	4.gg 4.b\	o-
8d\	.	.	.	.
8B 8G\	.	.	.	.
8d\J	8b\	8G\	8b 8g\	-mni-
!!LO:LB:g=original
=12	=12	=12	=12	=12
*	*	*	*^	*
8cL 8F#X\	8dd\L	8F#X\	8cc\	8f#X\	-po-
8d\	8cc\J	8F#\	8cc 8a\	2ryy	-ten-
8c 8D\	2a 2f#X/	4F#\	4a 4f#\	.	-tem
8d\	.	.	.	.	.
8c 8D\	.	4r	4r	.	.
8d\J	.	.	.	8ryy	.
*	*	*	*v	*v	*
=13	=13	=13	=13	=13
4G 4D 4GG\	(8gL 8d\	8G\	8g\L	pa-
.	8bJ 8g\)	8r	8b\J	.
4G 4D\	(8aL 8f#X\	8F#X\	8a\L	-trem
.	8ccJ 8a\)	8r	8cc\J	.
4B 4G\	(8bL 8g\	8G\	8b\	o-
.	8ddJ 8b\)	8r	8dd\	-mni-
=14	=14	=14	=14	=14
*	*	*	*^	*
4A 4F#X 4D\	(8ccL 8a\	4D\	8.dd\	8.f#X\	-po-
.	8eeJ 8cc\)	.	.	.	.
.	.	.	16cc 16a\	2ryy	-ten-
4r	(8ccL 8f#X\	4r	4a 4f#\	.	-tem
.	8a\J)	.	.	.	.
4r	(8f#X/L	4r	4r	.	.
.	8d/J)	.	.	.	.
.	.	.	.	16ryy	.
*	*	*	*v	*v	*
=15	=15	=15	=15	=15
8BL 8G\	(8b\L	8G\	8b 8g\	fa-
8d\	8dd\J)	8G\	8dd 8b\	-cto-
8B 8G\	4.gg 4.g\	4.G\	4.gg 4.b\	-rem
8d\	.	.	.	.
8B 8G\	.	.	.	.
8d\J	8b\	8G\	8b 8g\	.
=16	=16	=16	=16	=16
*	*	*	*^	*
8cL 8F#X\	(8dd\L	8.F#X\	8.dd\	8.f#X\	cea-
8d\	8cc\J)	.	.	.	.
.	.	16F#\	16cc 16a\	2ryy	.
8c 8F#\	4.a\	4F#\	4a 4f#\	.	-li
8d\	.	.	.	.	.
8F# 8D\	.	4r	4r	.	.
8d\J	8cc\	.	.	.	.
.	.	.	.	16ryy	.
*	*	*	*v	*v	*
=17	=17	=17	=17	=17
4G 4D 4GG\	(8bL 8d\	8G\	8b\	fac-
.	8ggJ 8b\)	8r	8dd\	-to-
4r	(8eeL 8cc\	8C\	(8ee\L	-rem
.	8ccJ 8a\)	8r	8cc\J)	.
4A 4F#X 4D\	8aL 8f#X/	8D\	(8a\L	coe-
.	8ddJ 8a/	8D\	8f#X\J)	-li
=18	=18	=18	=18	=18
4G\	8bL 8d/	8G\	8a/	et
.	8gJ 8B/	8GG/	8g/	ter-
4GG/	4g 4B/	4GG/	4g/	-re
4ryy	4ryy	4ryy	4r	.
=:|!	=:|!	=:|!	=:|!	=:|!
*-	*-	*-	*-	*-
!!!system-decoration: <(s1,s2)>{(s3,s4)}
!!!ENC: Filip Voros
!!!END: 2021-11-16
!!!ENC: Andrzej Kubiczek
!!!END: 2021-12-12
